X:1
T:Title
L:1/8
M:3/4
I:linebreak $
K:D
V:1 treble nm="Voice"
V:1
"D" AF DA FD | AF DA FD |"G" BG DB GD | BG DG Bd |"D" AF DA FD | AF DA FD |1"A" EC A,E CA, | %7
 EA, B,C B,A, :|2"A" cB AG B,C |"D" D3 F AF |:"G" BA FD dB | B3"D" A, DF | FF"A" EA, CE | %13
 EE"D" DF AF |"G" BA FD dB | B3"D" A, DF | FF"A" EB, CA, |1"D" D3 F AF :|2"D" D3 E FG |] %19
